optimized/24/outline/name.svg

<svg viewBox="0 0 24 24" fill="none" xmlns="http://www.w3.org/2000/svg">
  <g clip-path="url(#clip0_2208_12314)">
    <path fill-rule="evenodd" clip-rule="evenodd" d="M12 2.25C9.37665 2.25 7.25 4.37665 7.25 7C7.25 9.62335 9.37665 11.75 12 11.75C14.6234 11.75 16.75 9.62335 16.75 7C16.75 4.37665 14.6234 2.25 12 2.25ZM8.75 7C8.75 5.20507 10.2051 3.75 12 3.75C13.7949 3.75 15.25 5.20507 15.25 7C15.25 8.79493 13.7949 10.25 12 10.25C10.2051 10.25 8.75 8.79493 8.75 7Z" fill="#333333"/>
    <path fill-rule="evenodd" clip-rule="evenodd" d="M7.75 13.75C6.49022 13.75 5.28204 14.2504 4.39124 15.1412C3.50044 16.032 3 17.2402 3 18.5L3 20C3 20.9665 3.7835 21.75 4.75 21.75H19.25C20.2165 21.75 21 20.9665 21 20V18.5C21 17.2402 20.4996 16.032 19.6088 15.1412C18.718 14.2504 17.5098 13.75 16.25 13.75H7.75ZM5.4519 16.2019C6.0614 15.5924 6.88805 15.25 7.75 15.25H16.25C17.112 15.25 17.9386 15.5924 18.5481 16.2019C19.1576 16.8114 19.5 17.638 19.5 18.5V20C19.5 20.1381 19.3881 20.25 19.25 20.25H4.75C4.61193 20.25 4.5 20.1381 4.5 20V18.5C4.5 17.638 4.84241 16.8114 5.4519 16.2019Z" fill="#333333"/>
  </g>
  <defs>
    <clipPath id="clip0_2208_12314">
      <rect width="24" height="24" fill="white"/>
    </clipPath>
  </defs>
</svg>

<svg xmlns="http://www.w3.org/2000/svg" width="24" height="24" fill="none">
  <g fill="#333" fill-rule="evenodd" clip-path="url(#a)" clip-rule="evenodd">
    <path d="M12 2.25a4.75 4.75 0 1 0 0 9.5 4.75 4.75 0 0 0 0-9.5ZM8.75 7a3.25 3.25 0 1 1 6.5 0 3.25 3.25 0 0 1-6.5 0ZM7.75 13.75A4.75 4.75 0 0 0 3 18.5V20c0 .966.784 1.75 1.75 1.75h14.5A1.75 1.75 0 0 0 21 20v-1.5a4.75 4.75 0 0 0-4.75-4.75h-8.5Zm-2.298 2.452a3.25 3.25 0 0 1 2.298-.952h8.5a3.25 3.25 0 0 1 3.25 3.25V20a.25.25 0 0 1-.25.25H4.75A.25.25 0 0 1 4.5 20v-1.5c0-.862.342-1.689.952-2.298Z"/>
  </g>
  <defs>
    <clipPath id="a">
      <path fill="#fff" d="M0 0h24v24H0z"/>
    </clipPath>
  </defs>
</svg>
